X:7503
%16556
T:The Cat's Rambles to the Childs Saucepan 
R:slide
K:Cmaj
M:4/4
G3|c2d e2d cBc ~A3
%Error : Bar 1 is 3/2 not 4/4
|{g}f2d BAG {e}d2G BAG
%Error : Bar 2 is 3/2 not 4/4
|
c2d e2d cBc ~A3
%Error : Bar 3 is 3/2 not 4/4
|f2d BAG c3 cAG
%Error : Bar 4 is 3/2 not 4/4
|
c2d e2d cBc ~A3
%Error : Bar 5 is 3/2 not 4/4
|{g}f2d BAG {e}d2G BAG
%Error : Bar 6 is 3/2 not 4/4
|
c2d {ef}e2d cBc ~A3
%Error : Bar 7 is 3/2 not 4/4
|f2d BAG c3 c2G
%Error : Bar 8 is 3/2 not 4/4
|
c2d e2g age g2e
%Error : Bar 9 is 3/2 not 4/4
|{e}d2G BAG {e}d2G BAG
%Error : Bar 10 is 3/2 not 4/4
|
c2d e2g age g2e
%Error : Bar 11 is 3/2 not 4/4
|{e}d2G BAG c3 cAG
%Error : Bar 12 is 3/2 not 4/4
|
c2d {f}e2g age g2e
%Error : Bar 13 is 3/2 not 4/4
|{e}d2G BAG {e}d2G BAG
%Error : Bar 14 is 3/2 not 4/4
|
c2d e2g age g2e
%Error : Bar 15 is 3/2 not 4/4
|{e}d2G BAG c3 c3
%Error : Bar 16 is 3/2 not 4/4
|


